src/assets/svg/logo-black.svg

<?xml version="1.0" encoding="UTF-8"?>
<svg width="70px" height="71px" viewBox="0 0 70 71" version="1.1" xmlns="http://www.w3.org/2000/svg" xmlns:xlink="http://www.w3.org/1999/xlink">
    <title>Group 46</title>
    <defs>
        <polygon id="path-1" points="0 0.5262 69.4736 0.5262 69.4736 70 0 70"></polygon>
    </defs>
    <g id="Page-1" stroke="none" stroke-width="1" fill="none" fill-rule="evenodd">
        <g id="01_JDAA_home-page_new-approach-Copy-10" transform="translate(-159.000000, -4352.000000)">
            <g id="Group-21" transform="translate(140.000000, 4216.000000)">
                <g id="Group-46" transform="translate(19.000000, 136.000000)">
                    <path d="M21.1697,21.0151 L21.1697,11.9521 L15.7117,11.9521 L15.7117,13.3261 L19.6487,13.3261 L19.6487,21.0531 C19.6487,22.4761 19.1267,23.9001 17.2327,23.9001 C15.6937,23.9001 14.8147,23.0581 14.8147,21.6131 L13.2937,21.6131 C13.2937,24.1441 15.1327,25.3081 17.1767,25.3081 C20.1557,25.3081 21.1697,23.1901 21.1697,21.0151" id="Fill-1" fill="#000000"></path>
                    <path d="M14.8143,54.1982 L17.4583,46.9632 L17.5713,46.9632 L20.2063,54.1982 L14.8143,54.1982 Z M16.4543,45.5772 L11.5633,58.7012 L13.1553,58.7012 L14.2973,55.5912 L20.7123,55.5912 L21.8553,58.7012 L23.4483,58.7012 L18.6103,45.5772 L16.4543,45.5772 Z" id="Fill-3" fill="#000000"></path>
                    <path d="M52.0247,46.9633 L54.6687,54.1983 L49.2677,54.1983 L51.9117,46.9633 L52.0247,46.9633 Z M46.0257,58.7013 L47.6187,58.7013 L48.7637,55.5903 L55.1817,55.5903 L56.3247,58.7013 L57.9207,58.7013 L53.0827,45.5773 L50.9207,45.5773 L46.0257,58.7013 Z" id="Fill-5" fill="#000000"></path>
                    <g id="Group-9" transform="translate(0.000000, 0.473600)">
                        <mask id="mask-2" fill="white">
                            <use xlink:href="#path-1"></use>
                        </mask>
                        <g id="Clip-8"></g>
                        <path d="M51.9686,34.9892 C51.9476,34.9892 51.9266,34.9902 51.9066,34.9902 C42.6086,34.9592 35.0746,27.4462 35.0076,18.1562 C35.0076,18.1142 35.0106,18.0732 35.0106,18.0312 C35.0106,17.9902 35.0076,17.9502 35.0076,17.9092 C35.0736,8.6002 42.6366,1.0722 51.9626,1.0711996 C61.3296,1.0692 68.9246,8.6612 68.9256,18.0292 L68.9256,18.0312 C68.9246,27.3962 61.3336,34.9882 51.9686,34.9892 M68.9256,52.4882 L68.9256,52.4942 C68.9256,61.8602 61.3336,69.4522004 51.9686,69.4522004 C42.6426,69.4542 35.0756,61.9272 35.0076,52.6172 C35.0076,52.5762 35.0106,52.5362 35.0106,52.4942 C35.0106,52.4532 35.0076,52.4122 35.0076,52.3702 C35.0726,43.1012 42.5726,35.6002 51.8416,35.5332 C51.8846,35.5342 51.9266,35.5372 51.9686,35.5372 C52.0096,35.5372 52.0496,35.5342 52.0896,35.5342 C61.3976,35.6012 68.9246,43.1642 68.9256,52.4882 M17.5056,69.4522004 C8.1376,69.4542 0.5436,61.8622 0.541599602,52.4942 C0.5396,43.1682 8.0676,35.6002 17.3786,35.5332 C17.4216,35.5342 17.4626,35.5372 17.5056,35.5372 C17.5466,35.5372 17.5856,35.5342 17.6266,35.5342 C26.9346,35.6012 34.4616,43.1642 34.4636,52.4882 L34.4636,52.4942 C34.4636,61.8602 26.8706,69.4522004 17.5056,69.4522004 M34.7366,21.1012 C36.0116,28.3072 41.6926,33.9882 48.8986,35.2632 C41.6936,36.5382 36.0126,42.2182 34.7376,49.4232 C33.4626,42.2182 27.7826,36.5372 20.5766,35.2632 C27.7816,33.9872 33.4616,28.3072 34.7366,21.1012 M0.541599605,18.0342 C0.5396,8.6672 8.1316,1.0722 17.4986,1.0711996 C26.8666,1.0692 34.4616,8.6612 34.4636,18.0292 L34.4636,18.0312 C34.4616,27.3962 26.8696,34.9882 17.5056,34.9892 C17.4846,34.9892 17.4646,34.9902 17.4436,34.9902 C8.1046,34.9592 0.5436,27.3812 0.541599605,18.0342 M69.4736,18.0312 C69.4716,8.3642 61.6356,0.5282 51.9686,0.5262 C43.3486,0.5262 36.1886,6.7592 34.7366,14.9622 C33.2846,6.7592 26.1256,0.5262 17.5056,0.5262 C7.8376,0.5262 -0.0004,8.3642 -0.0004,18.0312 C-0.0004,26.6522 6.2326,33.8112 14.4356,35.2632 C6.2326,36.7152 -0.0004,43.8742 -0.0004,52.4942 C-0.0004,62.1622 7.8376,70.0002 17.5056,70.0002 C26.1256,70.0002 33.2846,63.7672 34.7366,55.5642 C36.1886,63.7672 43.3486,70.0002 51.9686,70.0002 C61.6356,70.0002 69.4736,62.1622 69.4736,52.4942 C69.4736,43.8742 63.2416,36.7152 55.0376,35.2632 C63.2416,33.8112 69.4736,26.6522 69.4736,18.0312" id="Fill-7" fill="#000000" mask="url(#mask-2)"></path>
                    </g>
                    <path d="M51.261,23.7124 L51.261,23.7254 L49.255,23.7254 L49.255,13.3074 L51.261,13.3074 C54.412,13.3074 56.287,15.3324 56.287,18.5024 C56.287,21.8004 54.375,23.7124 51.261,23.7124 M51.261,11.9524 L47.738,11.9524 L47.738,25.0644 L51.261,25.0644 C55.423,25.0644 57.833025,22.5614 57.833025,18.4924 C57.842,14.6754 55.423,11.9524 51.261,11.9524" id="Fill-10" fill="#000000"></path>
                </g>
            </g>
        </g>
    </g>
</svg>

<?xml version="1.0" encoding="utf-8"?>
<!-- Generator: Adobe Illustrator 24.0.1, SVG Export Plug-In . SVG Version: 6.00 Build 0)  -->
<svg version="1.1" id="Layer_1" xmlns="http://www.w3.org/2000/svg" xmlns:xlink="http://www.w3.org/1999/xlink" x="0px" y="0px"
	 viewBox="0 0 70 71" style="enable-background:new 0 0 70 71;" xml:space="preserve">
<style type="text/css">
	.st0{fill-rule:evenodd;clip-rule:evenodd;fill:#FFFFFF;}
	.st1{fill-rule:evenodd;clip-rule:evenodd;}
	.st2{filter:url(#Adobe_OpacityMaskFilter);}
	.st3{mask:url(#mask-2_1_);fill-rule:evenodd;clip-rule:evenodd;}
</style>
<circle class="st0" cx="52" cy="53.1" r="17.3"/>
<title>Group 46</title>
<g id="Page-1">
	<g id="_x30_1_x5F_JDAA_x5F_home-page_x5F_new-approach-Copy-10" transform="translate(-159.000000, -4352.000000)">
		<g id="Group-21" transform="translate(140.000000, 4216.000000)">
			<g id="Group-46" transform="translate(19.000000, 136.000000)">
				<path id="Fill-1" class="st1" d="M21.2,21V12h-5.5v1.4h3.9v7.7c0,1.4-0.5,2.8-2.4,2.8c-1.5,0-2.4-0.8-2.4-2.3h-1.5
					c0,2.5,1.8,3.7,3.9,3.7C20.2,25.3,21.2,23.2,21.2,21"/>
				<path id="Fill-3" class="st1" d="M14.8,54.2l2.6-7.2h0.1l2.6,7.2H14.8z M16.5,45.6l-4.9,13.1h1.6l1.1-3.1h6.4l1.1,3.1h1.6
					l-4.8-13.1H16.5z"/>
				<path id="Fill-5" class="st1" d="M52,47l2.6,7.2h-5.4l2.6-7.2H52z M46,58.7h1.6l1.1-3.1h6.4l1.1,3.1h1.6l-4.8-13.1h-2.2L46,58.7
					z"/>
				<g id="Group-9" transform="translate(0.000000, 0.473600)">
					<g id="Clip-8">
					</g>
					<defs>
						<filter id="Adobe_OpacityMaskFilter" filterUnits="userSpaceOnUse" x="0" y="0.5" width="69.5" height="69.5">
							<feColorMatrix  type="matrix" values="1 0 0 0 0  0 1 0 0 0  0 0 1 0 0  0 0 0 1 0"/>
						</filter>
					</defs>
					<mask maskUnits="userSpaceOnUse" x="0" y="0.5" width="69.5" height="69.5" id="mask-2_1_">
						<g class="st2">
							<polygon id="path-1_1_" class="st0" points="0,0.5 69.5,0.5 69.5,70 0,70 							"/>
						</g>
					</mask>
					<path id="Fill-7" class="st3" d="M52,35C51.9,35,51.9,35,52,35c-9.4,0-16.9-7.5-17-16.8c0,0,0-0.1,0-0.1c0,0,0-0.1,0-0.1
						c0.1-9.3,7.6-16.8,17-16.8c9.4,0,17,7.6,17,17v0C68.9,27.4,61.3,35,52,35 M68.9,52.5L68.9,52.5c0,9.4-7.6,17-17,17
						c-9.3,0-16.9-7.5-17-16.8c0,0,0-0.1,0-0.1c0,0,0-0.1,0-0.1c0.1-9.3,7.6-16.8,16.8-16.8c0,0,0.1,0,0.1,0c0,0,0.1,0,0.1,0
						C61.4,35.6,68.9,43.2,68.9,52.5 M17.5,69.5c-9.4,0-17-7.6-17-17c0-9.3,7.5-16.9,16.8-17c0,0,0.1,0,0.1,0c0,0,0.1,0,0.1,0
						c9.3,0.1,16.8,7.6,16.8,17v0C34.5,61.9,26.9,69.5,17.5,69.5 M34.7,21.1c1.3,7.2,7,12.9,14.2,14.2c-7.2,1.3-12.9,7-14.2,14.2
						c-1.3-7.2-7-12.9-14.2-14.2C27.8,34,33.5,28.3,34.7,21.1 M0.5,18c0-9.4,7.6-17,17-17c9.4,0,17,7.6,17,17v0c0,9.4-7.6,17-17,17
						c0,0,0,0-0.1,0C8.1,35,0.5,27.4,0.5,18 M69.5,18c0-9.7-7.8-17.5-17.5-17.5c-8.6,0-15.8,6.2-17.2,14.4
						C33.3,6.8,26.1,0.5,17.5,0.5C7.8,0.5,0,8.4,0,18c0,8.6,6.2,15.8,14.4,17.2C6.2,36.7,0,43.9,0,52.5C0,62.2,7.8,70,17.5,70
						c8.6,0,15.8-6.2,17.2-14.4C36.2,63.8,43.3,70,52,70c9.7,0,17.5-7.8,17.5-17.5c0-8.6-6.2-15.8-14.4-17.2
						C63.2,33.8,69.5,26.7,69.5,18"/>
				</g>
				<path id="Fill-10" class="st1" d="M51.3,23.7L51.3,23.7l-2,0V13.3h2c3.2,0,5,2,5,5.2C56.3,21.8,54.4,23.7,51.3,23.7 M51.3,12
					h-3.5v13.1h3.5c4.2,0,6.6-2.5,6.6-6.6C57.8,14.7,55.4,12,51.3,12"/>
			</g>
		</g>
	</g>
</g>
</svg>
